src/client/web-contents/img/common/badge/badge_member_07.svg

<?xml version="1.0" encoding="UTF-8" standalone="no"?>
<svg width="32px" height="32px" viewBox="0 0 32 32" version="1.1" xmlns="http://www.w3.org/2000/svg" xmlns:xlink="http://www.w3.org/1999/xlink">
    <!-- Generator: Sketch 50.2 (55047) - http://www.bohemiancoding.com/sketch -->
    <title>graphic_badge_member_07</title>
    <desc>Created with Sketch.</desc>
    <defs></defs>
    <g id="Icon_Badge_Graphic" stroke="none" stroke-width="1" fill="none" fill-rule="evenodd">
        <g id="##Element/Badge/Member07">
            <rect id="Rectangle-2" fill="#119ED7" x="0" y="0" width="32" height="32" rx="4"></rect>
            <path d="M18.2800004,17.44 L15.8600004,11.84 L13.4600004,17.44 L18.2800004,17.44 Z M14.7600004,8.9 L17.0400004,8.9 L23.2000004,23 L20.6000004,23 L19.1800004,19.62 L12.5600004,19.62 L11.1200004,23 L8.60000038,23 L14.7600004,8.9 Z" id="A" fill="#FFFFFF"></path>
        </g>
    </g>
</svg>

<svg height="32" viewBox="0 0 32 32" width="32" xmlns="http://www.w3.org/2000/svg"><g fill="none" fill-rule="evenodd"><rect fill="#119ed7" height="32" rx="4" width="32"/><path d="m18.2800004 17.44-2.42-5.6-2.4 5.6zm-3.52-8.54h2.28l6.16 14.1h-2.6l-1.42-3.38h-6.62l-1.44 3.38h-2.52000002z" fill="#fff"/></g></svg>
